packages/core/src/svgs/tokens/branded/KDA.svg

<svg width="24" height="24" viewBox="0 0 24 24" fill="none" xmlns="http://www.w3.org/2000/svg">
<path d="M21.2857 22H15.0951L8.74512 12.9525L11.2851 7.71437L21.2857 22Z" fill="url(#paint0_linear_364_9212)"/>
<path d="M2.71436 2H7.71433V22H2.71436V2Z" fill="#6A0097"/>
<path d="M20.1744 2H14.4606L7.71436 8.87496V15.1225L20.1744 2Z" fill="url(#paint1_linear_364_9212)"/>
<defs>
<linearGradient id="paint0_linear_364_9212" x1="16.9215" y1="22" x2="6.60034" y2="7.44279" gradientUnits="userSpaceOnUse">
<stop stop-color="#6A0097"/>
<stop offset="1" stop-color="#E40790"/>
</linearGradient>
<linearGradient id="paint1_linear_364_9212" x1="18.3401" y1="2" x2="7.08956" y2="12.3125" gradientUnits="userSpaceOnUse">
<stop stop-color="#730196"/>
<stop offset="1" stop-color="#ED098F"/>
</linearGradient>
</defs>
</svg>

<svg xmlns="http://www.w3.org/2000/svg" width="24" height="24" fill="none" viewBox="0 0 24 24">
    <path fill="url(#KDA__a)" d="M21.286 22h-6.19l-6.35-9.047 2.54-5.239z"/>
    <path fill="#6A0097" d="M2.714 2h5v20h-5z"/>
    <path fill="url(#KDA__b)" d="M20.174 2h-5.713L7.714 8.875v6.248z"/>
    <defs>
        <linearGradient id="KDA__a" x1="16.922" x2="6.6" y1="22" y2="7.443" gradientUnits="userSpaceOnUse">
            <stop stop-color="#6A0097"/>
            <stop offset="1" stop-color="#E40790"/>
        </linearGradient>
        <linearGradient id="KDA__b" x1="18.34" x2="7.09" y1="2" y2="12.313" gradientUnits="userSpaceOnUse">
            <stop stop-color="#730196"/>
            <stop offset="1" stop-color="#ED098F"/>
        </linearGradient>
    </defs>
</svg>
